!!!COM: Beethoven, Ludwig van
!!!CDT: 1770///-1827///
!!!OTL: Piano Sonata no. 5 in C Minor
!!!ODT: 1795///-1797///
!!!ODE: &agrave; la Comtesse de Browne
!!!OMD: Adagio molto
!!!OPS: 10
!!!ONM: 1
!!!OMV: 2
**kern	**kern	**dynam
*staff2	*staff1	*staff1/2
*Ipiano	*Ipiano	*Ipiano
*clefF4	*clefG2	*clefG2
*k[b-e-a-d-]	*k[b-e-a-d-]	*k[b-e-a-d-]
*A-:	*A-:	*A-:
*M2/4	*M2/4	*M2/4
*MM52	*MM52	*MM52
=1-	=1-	=1-
*	*^	*
4AA- 4E- (4A-	(4a-	4c	p
4GG 4E- 4G	8.ccL	4d-	.
.	16b-Jk)	.	.
=2	=2	=2	=2
4.AA- 4.E- 4.A-)	4.a-	4.c	.
8r	8an	8r	.
=3	=3	=3	=3
*^	*	*	*
8d-L	(4G	(4b-	4e-	.
8B-	.	.	.	.
8A-	4A-	8.dd-L	8e-L	.
8cJ	.	.	8a-J	.
.	.	16ccJk)	.	.
=4	=4	=4	=4	=4
*v	*v	*	*	*
4.E-) 4.e-	4.b-	4.g	.
8r	8bn	8r	.
=5	=5	=5	=5
4A-	(8..ccL	4e-	<
.	32a-Jkk	.	.
4C 4A- 4c	8..ee-L	4e- 4a-	.
.	32ccJkk	.	.
=6	=6	=6	=6
4D- 4A- 4d-	8..ffL	4f 4a-	.
.	32dd-Jkk)	.	.
[4F [4A- [4d- [4f	4r	[4a- (4dd- 4aa-	.
=7	=7	=7	=7
4F] 4A-] 4d-] 4f]	16aa-LL	4a-]) 4dd-	>
.	16gg	.	.
.	16ff'	.	.
.	16ee-'JJ	.	.
(8G 8e-L	(8b- 8dd-L	4r	.
8A-) 8e-J	8a-) 8ccJ	.	.
=8	=8	=8	=8
*^	*	*	*
(8.cL	4E-	(8.ee-L	8e-L	.
.	.	.	8e-	.
16A-Jk	.	16ccJk	.	.
8G)	8E-	16b-LL)	8e-J	.
.	.	(a#qLL	.	.
.	.	b-qJJ)	.	.
.	.	32dd-L	.	.
.	.	32ccJJJ	.	.
8r	8r	32ee-LLL	8r	.
.	.	32dd-	.	.
.	.	(48cc	.	.
.	.	48dd-	.	.
.	.	48b-JJJ)	.	.
=9	=9	=9	=9	=9
16AA-LL	4AA-	(4a-	4c	p
16E-	.	.	.	.
16E-	.	.	.	.
16E-JJ	.	.	.	.
16GGLL	4GG	8.ccL	4d-	.
16E-	.	.	.	.
16E-	.	.	.	.
16E-JJ	.	16b-Jk	.	.
*v	*v	*	*	*
*	*v	*v	*
=10	=10	=10
(16AA-LL	4c 4a-)	.
16E-	.	.
16C	.	.
16A-JJ	.	.
16E-LL	4r	.
16c	.	.
16A-	.	.
16e-JJ)	.	.
=11	=11	=11
*^	*^	*
16GLL	4G	(4b-	4r	.
16e-	.	.	.	.
16e-	.	.	.	.
16e-JJ	.	.	.	.
16A-LL	4A-	8.dd-L	4a-	.
16e-	.	.	.	.
16e-	.	.	.	.
16e-JJ	.	16ccJk	.	.
*v	*v	*	*	*
=12	=12	=12	=12
16E-LL	4b-)	4g	.
16e-	.	.	.
16dn	.	.	.
16e-JJ	.	.	.
16dLL	4r	4r	.
16e-	.	.	.
16f	.	.	.
16d-JJ	.	.	.
*	*v	*v	*
=13	=13	=13
.	e-q	.
16r	(8..ccL	.
16A-LL	.	.
16c	.	.
&(16e-JJ&)	.	.
.	32a-Jkk	.
.	e-q	.
16r	8..ee-L	.
16CLL	.	.
16E-	.	.
&(16A-JJ&)	.	.
.	32ccJkk	.
=14	=14	=14
*^	*	*
.	.	fq	.
16r	16r	4.ff	>
(16FLL	[8.D-	.	.
16G	.	.	.
16A-JJ	.	.	.
16AnLL	4D-]	.	.
16B-	.	.	.
16c	.	16an 16ee-LL	.
16d-JJ)	.	16b- 16dd-JJ)	.
=15	=15	=15	=15
*	*	*^	*
(16e-LL	4E-	(8ccL	4a-	p
16dn	.	.	.	.
16d-	.	8ee-	.	.
16cJJ	.	.	.	.
16B-LL	4E-	8dd-	4g	.
16c	.	.	.	.
16d-	.	8b-J)	.	.
16GJJ)	.	.	.	.
=16	=16	=16	=16	=16
(4G	4.AA-	(4b-	8d-L	.
.	.	.	32cLL	.
.	.	.	32d-	.
.	.	.	32e-	.
.	.	.	32d-JJJ	.
8A-)	.	8a-)	8c	.
8r	8r	8r	8r	.
*v	*v	*	*	*
*	*v	*v	*
=17	=17	=17
.	ffq	.
4An 4c 4e- 4f	4fff	f
.	eee-qLLL	.
.	cccq	.
.	aanq	.
.	ffq	.
.	(ee-q	.
.	ccq	.
.	anqJJJ)	.
8r	8f	.
16.r	16.r	.
32AAn 32F	32c 32e-	p
=18	=18	=18
4.BB- 4.F	4c (4e-	.
.	8B- 8d-)	.
8r	8r	.
=19	=19	=19
.	ee-q	.
4G 4B- 4d- 4e-	4eee-	f
.	ddd-qLLL	.
.	bb-q	.
.	ggq	.
.	ee-q	.
.	dd-q	.
.	b-q	.
.	gqJJJ	.
8r	8e-'	.
16.r	16.r	.
32GG 32E-	32B- 32d-	p
=20	=20	=20
4.AA- 4.E-	4B- (4d-	.
.	8A- 8c)	.
8r	8r	.
=21	=21	=21
Cq	.	.
4c-	4r	f
c-qLLL	.	.
(A-q	.	.
E-q	.	.
Cq	.	.
AA-q	.	.
EE-qJJJ)	.	.
8CC-	8r	.
16.r	16.r	.
32CC- 32C-	32E- 32A- 32e-	.
=22	=22	=22
*	*^	*
4.BBB- 4.BB-	(4e-	4.F 4.A-	.
.	16dnLL)	.	.
.	(16en	.	.
8r	16f)	8r	.
.	(16anJJ	.	.
*	*v	*v	*
=23	=23	=23
2r	16b-LL)	.
.	(16cc#	.
.	16ddn)	.
.	(16eenJJ	.
.	16ffLL)	.
.	(16gg	.
.	16aa-	.
.	16ffJJ)	.
=24	=24	=24
8A- 8B-L	[4ddn	pp
8A- 8B-	.	.
8A- 8B-	(8ddL]	.
8A- 8B-J	16.ee-L	.
.	32ffJJk)	.
=25	=25	=25
8G 8B-L	(8ff	.
8G 8B-	4ee-	.
8G 8B-	.	.
8G 8B-J	8een)	.
=26	=26	=26
*^	*	*
4.r	8Dn 8A- 8B-L	[4ff	.
.	8D 8A- 8B-	.	.
.	8D 8A- 8B-	(8ffL]	<
16.GLL	8D 8B-J	16.ggL	.
32FJJk	.	32aa-JJk)	.
*v	*v	*	*
=27	=27	=27
8E- 8F 8B-L	(8aa-L	>
8E- 8G 8B-	16ggJk)	.
.	16r	.
8E- 8G 8B-	4r	.
8E- 8G 8B-J	.	.
=28	=28	=28
8A- 8B-L	96r	.
.	(96dnLLLL	.
.	96e-	.
.	96f	.
.	96e-	.
.	96d	.
.	96a-	.
.	96g	.
.	96f	.
.	96ddn	.
.	96cc	.
.	96b-JJJJ)	.
8A- 8B-J	(96ffLLLL	.
.	96ee-	.
.	96ddJJ	.
.	96aa-LL	.
.	96gg	.
.	96ffJJ)	.
.	[16cccJJ	.
8A- 8B-L	8.cccL]	.
8A- 8B-J	.	.
.	(112cccLLL	.
.	112bb-	.
.	112aa-	.
.	112gg	.
.	112ff	.
.	112ee-	.
.	112ddnJJJJ)	.
=29	=29	=29
8r	(16.ffLL	.
.	32ee-JJk	.
8G 8B-L	32.ddnLLL	.
.	64ee-k	.
.	32.ff	.
.	64ee-JJJk)	.
8G 8B-	8e-	.
8G 8B-J	8r	.
=30	=30	=30
8Dn 8A- 8B-L	96r	.
.	(96fLLLL	.
.	96g	.
.	96a-	.
.	96g	.
.	96f	.
.	96ddn	.
.	96cc	.
.	96b-	.
.	96ff	.
.	96ee-	.
.	96ddJJJJ)	.
8D 8F 8A- 8B-J	(96aa-LLLL	.
.	96gg	.
.	96ffJJ	.
.	96dddnLL	.
.	96ccc	.
.	96bb-JJ	.
.	[16fffJJ)	.
8D 8F 8A- 8B-L	8.fffL]	.
8D 8F 8A- 8B-J	.	.
.	(96fffLLL	.
.	96eee-	.
.	96ddd	.
.	96ccc	.
.	96bb-	.
.	96aa-JJJJ)	.
=31	=31	=31
8r	8.ggL	.
8E- 8G 8B-	.	.
.	32r	.
.	32ggJkk	.
8r	8.aa-L	.
8F 8A- 8B- 8dn	.	.
.	32r	.
.	32aa-Jkk	.
=32	=32	=32
8r	8.bb-L	.
8G 8B- 8e-	.	.
.	32r	.
.	32bb-Jkk	.
8r	8.bbnL	.
8G 8Bn 8e-	.	.
.	32r	.
.	32bbJkk	.
=33	=33	=33
8r	8.cccL	.
8A- 8c 8e-	.	.
.	32r	.
.	32cccJkk	.
8r	8.dddnL	.
8A- 8c- 8dn 8f	.	.
.	32r	.
.	32dddJkk	.
=34	=34	=34
8r	8.eee-L	f
8An 8c 8e- 8g-	.	.
.	32r	.
.	32eee-Jkk	.
4r	(16fffLL	>
.	16eee-	.
.	(16dddn')	.
.	16ccc'JJ)	.
=35	=35	=35
*	*^	*
8r	(16bb-LL	8r	.
.	16aan	.	p
8B-	16ccc	8e- 8gn	.
.	16bb-JJ	.	.
8r	16aa-LL	8r	.
.	16gg	.	.
8B-	16ff	8dn 8a-	.
.	16bb-JJ)	.	.
*	*v	*v	*
=36	=36	=36
24r	(24ff#LL	pp
24r	24gg	.
(24e-	24gJJ)	.
24B-LL	24r	.
24G	(24ggLL	.
24E-JJ)	(24gJJ)	.
24r	24ggLL	.
24r	24aa-)	.
(24f	24a-JJ	.
24dnLL	24r	.
24B-	(24aa-LL	.
24FJJ)	24a-JJ)	.
=37	=37	=37
24r	2r	.
24r	.	.
(24g	.	.
24e-LL	.	.
24B-	.	.
24GJJ)	.	.
24r	.	.
24r	.	.
(24g	.	.
24e-LL	.	.
24Bn	.	.
24GJJ)	.	.
=38	=38	=38
24r	24bbnLL	<
24r	24ccc	.
24a-	24ccJJ	.
(24e-LL	24r	.
24c	(24cccLL	.
24A-JJ)	24ccJJ	.
24r	24ccc#LL)	.
24r	24dddn	.
(24a-	24ddnJJ	.
24fLL	24r	.
24dn)	24dddLL	.
24B-JJ	24ddJJ	.
*clefG2	*	*
=39	=39	=39
24r	(24dddnLL	.
24r	24eee-	.
24an	24ee-JJ)	.
24gLL	24r	.
24e-	(24eee-LL	f
[24c-JJ	24ee-JJ	.
4c-] 4e- 4g 4a	24eee-LL	.
.	24gg-	.
.	24eee-JJ	.
.	24aanLL	.
.	24eee-	.
.	24aaJJ)	.
*clefF4	*	*
=40	=40	=40
*	*^	*
24r	4r	[4bb-	f
24BB-'LL	.	.	.
24E-'JJ	.	.	.
24Gn'LL	.	.	.
24B-'	.	.	.
24e-'JJ	.	.	.
4r	24bb-LL]	(24gnLL	.
.	24aan	24f#	.
.	24cccJJ	(24a-JJ)	.
.	24bb-LL	24g'LL	.
.	24aa-'	24fn'	.
.	24gg'JJ	24e-JJ)	.
=41	=41	=41	=41
2B- 2a-	8..ffL	4ee-	.
.	32ffJkk	.	.
.	(32ee-qLLL	.	.
.	32ffqJJJ	.	.
.	8..bb-L)	4ddn	.
.	32bb-Jkk	.	.
=42	=42	=42	=42
24r	8ee-	8g	f
24BBB-'LL	.	.	.
24EE-'JJ	.	.	.
24GG'LL	8r	8r	.
24BB-'	.	.	.
24E-'JJ	.	.	.
24G'LL	24r	4r	.
(24F#	(24anLL	.	.
24A-JJ)	24ccJJ)	.	.
(24G'LL	(24b-'LL	.	.
24Fn'	24a-'	.	.
24E-'JJ)	24g'JJ)	.	.
=43	=43	=43	=43
2BB- 2A-	8..fL	4e-	.
.	(32fJkk	.	.
.	8..b-L)	4dn	.
.	32b-Jkk	.	.
=44	=44	=44	=44
8E- 8G	8e-	8e-	.
8r	8r	8r	.
4r	4r	4r	.
*	*v	*v	*
=45	=45	=45
8EE- 8BB- 8D- 8E-	8G 8d- 8e- 8g	ff
8r	8r	.
4r	4r	.
=46	=46	=46
*	*^	*
8AA-L	4a-	(4c	p
8E-	.	.	.
8GG	8.ccL	4d-	.
&(8E-J&)	.	.	.
.	16b-Jk	.	.
=47	=47	=47	=47
(8AA-L	[4a-	4c)	.
8E-	.	.	.
8A-	(16a-LL]	4r	.
.	16g	.	.
8cJ)	16a-	.	.
.	16anJJ)	.	.
=48	=48	=48	=48
*^	*	*	*
(8d-L	4G	(4b-	4e-	.
8B-	.	.	.	.
8A-	4A-	8.dd-L	8e-L	.
8cJ)	.	.	8a-J	.
.	.	16ccJk)	.	.
*	*	*v	*v	*
=49	=49	=49	=49
(8e-L	2E- 2e-	4g [4b-	.
8d-	.	.	.
8B-	.	24b-LL]	.
.	.	(24ff	.
.	.	24ee-JJ	.
8GJ)	.	(24dd-'LL)	.
.	.	24cc'	.
.	.	24bn'JJ)	.
*v	*v	*	*
=50	=50	=50
16.r	(8..ccL	<
32A-LKK	.	.
8e-J	.	.
.	32a-Jkk	.
16.r	8..ee-L	.
32CLKK	.	.
8A-J	.	.
.	32ccJkk	.
=51	=51	=51
*^	*	*
16.r	8r	8..ffL	.
32D-LLK	.	.	.
16.A-	16.r	.	.
32FJJk	32F	32dd-Jkk	.
16.d-LL	[4F	[4aa-)	.
32A-k	.	.	.
16.f	.	.	.
32d-JJk	.	.	.
*v	*v	*	*
=52	=52	=52
*	*^	*
8F] 8A-L	(16aa-LL]	4a-	.
.	16gg	.	.
8F (8A-J	16ff	.	.
.	16ee-JJ	.	.
8G 8B-L	(16ee-LL)	8e-L	.
.	16dd-	.	.
8A- 8cJ)	16dd-)	8e-J	.
.	16ccJJ	.	.
=53	=53	=53	=53
*^	*	*	*
8.cL	4E-	8.ee-L	8e-L	.
.	.	.	8e-	.
16A-Jk	.	16ccJk	.	.
8G	8E-	16b-LL	8e-J	.
.	.	32dd-L	.	.
.	.	32ccJJJ	.	.
8r	8r	32ee-LLL	8r	.
.	.	32dd-	.	.
.	.	64ccL	.	.
.	.	64ee-	.	.
.	.	64dd-	.	.
.	.	64b-JJJJ	.	.
=54	=54	=54	=54	=54
16AA-LL	4AA-	(4a-	4c	.
16E-	.	.	.	.
16E-	.	.	.	.
16E-JJ	.	.	.	.
16GGLL	4GG	8.ccL	4d-	.
16E-	.	.	.	.
16E-	.	.	.	.
16E-JJ	.	16b-Jk)	.	.
*v	*v	*	*	*
=55	=55	=55	=55
(24AA-'LL	4a-	4c	.
24E-'	.	.	.
24C'JJ)	.	.	.
(24A-'LL	.	.	.
24E-'	.	.	.
(24c'JJ)	.	.	.
24A-'LL	4r	4r	.
24e-'	.	.	.
24d-'JJ)	.	.	.
(24c'LL	.	.	.
24B-'	.	.	.
24A-'JJ)	.	.	.
=56	=56	=56	=56
*^	*	*	*
4G	16GLL	(4b-	4e-	.
.	16E-	.	.	.
.	16E-	.	.	.
.	16E-JJ	.	.	.
4A-	16A-LL	8.dd-L	4e- 4a-	.
.	16E-	.	.	.
.	16E-	.	.	.
.	16E-JJ	16ccJk)	.	.
*v	*v	*	*	*
*	*v	*v	*
=57	=57	=57
(24EE-'LL	4e- 4g 4b-	.
24GG'	.	.
24BB-'JJ	.	.
24E-'LL	.	.
24G'	.	.
24B-'JJ	.	.
24d-'LL	4r	.
24f'	.	.
24e-'JJ	.	.
24d-LL	.	.
24c'	.	.
24B-'JJ)	.	.
=58	=58	=58
.	e-q	.
24A-	(8..ccL	.
(24e-'LL	.	.
24c'	.	.
24A-'	.	.
24E-'	.	.
24C'JJ)	.	.
.	32a-Jkk)	.
.	(e-q	.
24r	(8..ee-L)	.
(24c'LL	.	.
24A-'	.	.
24E-'	.	.
24C'	.	.
24AA-'JJ)	.	.
.	32ccJkk)	.
=59	=59	=59
*^	*	*
.	.	(fq	.
24r	24r	[4f) [4ff	f
(24D-LL	12D-	.	.
24E-	.	.	.
24F	4.D-)	.	.
24G-	.	.	.
24GnJJ	.	.	.
24A-LL	.	8f_ 8ff_	.
24An	.	.	.
24B-JJ	.	.	.
24BnLL	.	(24f] 24ffLL]	.
24c	.	24an) 24ee-	.
&(24d-JJ&)	.	24b- 24dd-JJ	.
*v	*v	*	*
=60	=60	=60
*^	*^	*
24r	4E-	(8ccL	4a-	p
(24e-LL	.	.	.	.
24dnJJ)	.	.	.	.
24r	.	8ee-	.	.
(24d-LL	.	.	.	.
24cJJ)	.	.	.	.
24r	4E-	8dd-	4g	.
(24B-LL	.	.	.	.
24cJJ)	.	.	.	.
24r	.	8b-J)	.	.
24d-LL	.	.	.	.
24GJJ	.	.	.	.
=61	=61	=61	=61	=61
(4G	4.AA-	(4b-	[8d-	.
.	.	.	32d-LLL]	.
.	.	.	64cL	.
.	.	.	64d-	.
.	.	.	64e-	.
.	.	.	64d-	.
.	.	.	64c	.
.	.	.	64d-JJJJ)	.
8A-)	.	8a-	8c	.
8r	8r	8r	8r	.
*v	*v	*	*	*
*	*v	*v	*
=62	=62	=62
.	(ffq	.
4A- 4c 4e- 4f	4fff)	ff
.	eee-qLLL	.
.	cccq	.
.	aanq	.
.	ffq	.
.	(ee-q	.
.	ccq	.
.	anqJJJ)	.
8r	8f'	.
16.r	16.r	.
32AAn 32F	32c 32e-	p
=63	=63	=63
4.BB- 4.F	(4c 4e-	.
.	8B-) 8d-	.
8r	8r	.
=64	=64	=64
.	(ee-q	.
4G 4B- 4d- 4e-	4eee-)	ff
.	bb-qLL	.
.	ggq	.
.	ee-q	.
.	dd-q	.
.	b-q	.
.	gqJJ	.
8r	8e-'	.
16.r	16.r	.
32GG 32E-	32B- 32d-	p
=65	=65	=65
4.AA- 4.E-	(4B- 4d-	.
.	8A-) 8c-	.
8r	8r	.
=66	=66	=66
*^	*	*
4.r	4c-)	4r	ff
.	32c-qLLL	.	.
.	32A-q	.	.
.	32(Fq	.	.
.	32Cq	.	.
.	32AA-q	.	.
.	32FFqJJJ)	.	.
.	8CC-	8r	.
16.r	16.r	16.r	.
32F- 32A-	32CC- 32C	32f-	.
=67	=67	=67	=67
4.G- 4.B--	4.CC- 4.C-	(4f-	.
.	.	8e-)	.
16.r	16.r	16.r	.
32Fn 32A-	32CC- 32C-	32e-	.
=68	=68	=68	=68
4.F 4.A-	4CC- (4C-	(4e-	.
.	&(8BBB-&) 8BB-)	8dn)	.
16.r	16.r	16.r	.
32F 32A-	32BBB- 32BB-	32d	.
=69	=69	=69	=69
4F 4A-	4BBB- 4BB-	(4dn	.
16G 16B-	&(8EE-&) 8E-	16d-)	.
8.r	.	(16anLL	.
.	8r	16b-)	.
.	.	(16ccJJ	.
*v	*v	*	*
=70	=70	=70
2r	16dd-LL)	.
.	(16ff#	.
.	16gg)	.
.	(16aanJJ	.
.	16bb-LL)	.
.	(16ccc	.
.	16ddd-	.
.	16bb-JJ)	.
=71	=71	=71
8d- 8e-L	[4gg	pp
8d- 8e-	.	.
8d- 8e-	(8ggL]	.
8d- 8e-J	16.aa-L	.
.	32bb-JJk)	.
=72	=72	=72
8c 8e-L	(8bb-	.
8c 8e-	4aa-	.
8c 8e-	.	.
8c 8e-J	8aan)	.
=73	=73	=73
*^	*	*
4.r	8G 8d- 8e-L	[4bb-	.
.	8G 8d- 8e-	.	.
.	8G 8d- 8e-	(8bb-L]	.
16.cLL	8G (8e-J	16.cccnL	.
32B-JJk)	.	32ddd-JJk)	.
*v	*v	*	*
=74	=74	=74
8A- 8Bn 8e-L	(8ddd-L	.
8A- 8c 8e-	16cccJk)	.
.	16r	.
8A- 8c 8e-	4r	.
8A- 8c 8e-J	.	.
=75	=75	=75
8d- 8e-L	96r	.
.	(96gLLLL	.
.	96a-	.
.	96b-	.
.	96a-	.
.	96g	.
.	96dd-	.
.	96cc	.
.	96b-	.
.	96ff	.
.	96ee-	.
.	96dd-JJJJ)	.
8d- 8e-J	(96bb-LLLL	.
.	96aa-	.
.	96gg	.
.	96ddd-	.
.	96ccc	.
.	96bb-JJ)	.
.	[16fffJJ	.
8d- 8e-L	8.fffL]	.
8d- 8e-J	.	.
.	(112fffLLL	.
.	112eee-	.
.	112ddd-	.
.	112ccc	.
.	112bb-	.
.	112aa-	.
.	112ggJJJJ)	.
=76	=76	=76
8r	(16.bb-LL	.
.	32aa-JJk	.
8c 8e-L	32.ggLLL	.
.	64aa-k	.
.	32.bb-	.
.	64aa-JJJk)	.
8c 8e-	8a-	.
8c 8e-J	8r	.
=77	=77	=77
8G 8d- 8e-L	96r	.
.	(96b-LLLL	.
.	96cc	.
.	96dd-	.
.	96cc	.
.	96b-	.
.	96ff	.
.	96ee-	.
.	96dd-	.
.	96bb-	.
.	96aa-	.
.	96ggJJJJ)	.
8G 8B- 8d- 8e-J	[8ddd-	.
8G 8B- 8d- 8e-L	8.ddd-]	.
8G 8B- 8d- 8e-J	.	.
.	(176cccLLLL	.
.	176ddd-	.
.	176eee-	.
.	176ddd-	.
.	176ccc	.
.	176bb-	.
.	176aa-	.
.	176gg	.
.	176ff	.
.	176ee-	.
.	176dd-JJJJ)	.
*clefG2	*	*
=78	=78	=78
8r	8.ccL	.
8A- 8e-	.	.
.	32r	.
.	32ccJkk	.
8r	8.dd-L	.
8B- 8d- 8e- 8g	.	.
.	32r	.
.	32dd-Jkk	.
=79	=79	=79
8r	8.ee-L	.
8c 8e- 8a-	.	.
.	32r	.
.	32ee-Jkk	.
8r	8.eenL	.
8c 8en 8a-	.	.
.	32r	.
.	32eeJkk	.
=80	=80	=80
8r	8.ffL	.
8d- 8f 8a-	.	.
.	32r	.
.	32ffJkk	.
8r	8.ggL	.
8d- 8en 8g 8b-	.	.
.	32r	.
.	32ggJkk	.
=81	=81	=81
8r	8.aa-L	f
8dn 8f 8a- 8cc-	.	.
.	32r	.
.	32aa-Jkk	.
4r	(16bb-LL	.
.	16aa-)	>
.	(16gg'	.
.	16ff'JJ)	.
*clefF4	*	*
=82	=82	=82
8r	(16ee-LL	p
.	16ddn	.
8E- 8A- 8c	16ff	.
.	16ee-JJ	.
8r	16dd-LL	.
.	16cc	.
8E- 8G 8d-	16b-	.
.	16ee-JJ)	.
=83	=83	=83
24r	(24bnLL	pp
24r	24cc	.
(24A-	24cJJ)	.
24E-LL	24r	.
24C	(24ccLL	.
24AA-JJ)	24cJJ)	.
24r	(24ccLL	.
24r	24dd-'	.
(24B-	24d-JJ)	.
24GLL	24r	.
24E-	(24dd-LL	.
24BB-JJ)	24d-JJ)	.
=84	=84	=84
24r	(24ddnLL	.
24r	24ee-	.
(24c	24e-JJ)	.
24A-LL	24r	.
24E-	24ee-LL	.
24CJJ)	24e-JJ	.
24r	(24ee-LL	.
24r	24een	.
(24c	24enJJ)	.
24A-LL	24r	.
24En	24eeLL	.
24CJJ)	24eJJ	.
=85	=85	=85
24r	(24eenLL	.
24r	24ff	.
(24d-	24fJJ)	.
24A-LL	24r	.
24F	(24ffLL	.
24D-JJ)	24fJJ)	.
24r	(24ff#LL	.
24r	24gg	.
(24d-	24gJJ)	.
24B-LL	24r	.
24G	(24ggLL	.
24E-JJ)	24gJJ)	.
=86	=86	=86
*^	*	*
24r	4r	(24ggLL	.
24r	.	24aa-	.
24c-'LL	.	24a-JJ)	.
24A-	.	24r	.
24F-JJ	.	(24aa-LL	.
24dn	.	24a-JJ)	.
4A- &(4c-&) 4d	4F-	(24ccc-LL	f
.	.	24cc-	.
.	.	24ccc-JJ	.
.	.	24a-LL	.
.	.	24aa-	.
.	.	24a-JJ	.
*v	*v	*	*
=87	=87	=87
24r	8ee-)	p
24E-'LL	.	.
24A-JJ	.	.
24c'LL	8r	.
24e-'	.	.
24a-'JJ	.	.
*clefG2	*	*
(24ccn'LL	24r	.
24bn	(24dddnLL	.
24dd-JJ)	24fffJJ)	.
(24cc'LL	(24eee-'LL	.
24b-'	24ddd-'	.
24a-'JJ)	24cccn'JJ)	.
=88	=88	=88
*	*^	*
2e- 2dd-	8..bb-L	4aa-	.
.	32bb-Jkk	.	.
.	(aanqLLL	.	.
.	bb-qJJJ	.	.
.	8..eee-L)	4gg	.
.	32eee-Jkk	.	.
*clefF4	*	*	*
=89	=89	=89	=89
24r	8aa-	8cc	f
24EE-'LL	.	.	.
24AA-JJ	.	.	.
24C'LL	8r	8r	.
24E-'	.	.	.
24A-'JJ	.	.	.
(24c'LL	4r	24r	.
24Bn	.	24ddnLL	.
24d-JJ)	.	24ffJJ	.
(24cLL	.	(24ee-'LL	.
24B-'	.	24dd-'	.
24A-'JJ)	.	24cc'JJ)	.
=90	=90	=90	=90
2E- 2d-	8..b-L	4a-	.
.	32b-Jkk	.	.
.	(anqLLL	.	.
.	b-qJJJ	.	.
.	8..ee-L)	4g	.
.	32ee-Jkk	.	.
=91	=91	=91	=91
(8A-L	(4a-	16c 16e-LK	p
.	.	8c 8e-	.
8E-	.	.	.
.	.	16c 16e-Jk	.
8G	8.ccL	16d- 16e-LK	.
.	.	8d- 8e-	.
8E-J	.	.	.
.	16b-Jk)	16d- 16e-Jk	.
=92	=92	=92	=92
8A-L	[4a-	16c 16e-LK	.
.	.	8c 8e-	.
8E-	.	.	.
.	.	8c 8e-	.
8C	8.a-L]	.	.
.	.	8c 8e-	.
8AA-J)	.	.	.
.	16anJk	16c 16e-Jk	.
=93	=93	=93	=93
(8GGL	(4b-	16d- 16e-LK	.
.	.	8e-	.
8EE-	.	.	.
.	.	[16e-Jk	.
8AA-	8.a- 8.dd-L	16e-LK]	.
.	.	8e-	.
8CJ	.	.	.
.	16a- 16ccJk)	[16e-Jk	.
=94	=94	=94	=94
*^	*	*	*
4r	8E-L	2g 2b-	16e-LK]	.
.	.	.	8e-	.
.	8F	.	.	.
.	.	.	8e-	.
[4E-	8E-	.	.	.
.	.	.	8e-	.
.	8D-J)	.	.	.
.	.	.	[16e-Jk	.
=95	=95	=95	=95	=95
8E-]	4C	(4ee-	16e-LK]	.
.	.	.	8e-	.
4A-	.	.	.	.
.	.	.	8e-	.
.	4BB-	4dd-	.	.
.	.	.	8e-	.
[8G	.	.	.	.
.	.	.	[16e-Jk	.
=96	=96	=96	=96	=96
8G]	4AA-	4cc	16e-LK]	.
.	.	.	8e-	.
4A-	.	.	.	.
.	.	.	[16enJk	.
.	4D-	8b-L	16eLK]	.
.	.	.	8f	.
(16B-LL	.	16.dd-L	.	.
16d-JJ)	.	.	[16fJk	.
.	.	32b-JJk)	.	.
=97	=97	=97	=97	=97
8r	&(4E-&)	(4a-	16fLK]	.
.	.	.	8e-	.
4c	.	.	.	.
.	.	.	8e-	.
.	4E-	8anL	.	.
.	.	.	8e-	.
[8G	.	8b-J	.	.
.	.	.	[16e-Jk	.
=98	=98	=98	=98	=98
8GL]	4AA- 4E-	8bnL	16e-LK]	.
.	.	.	8e-	.
8A-	.	8c 8cc	.	.
.	.	.	8e-	.
8B-	8BB- 8E-L	8d- 8dd-	.	.
.	.	.	8e-	.
8BnJ	&(8BBn&) 8E-J	8dn (8ddnJ)	.	.
.	.	.	[16e-Jk	.
=99	=99	=99	=99	=99
16cLK	4C 4E-	(4ee-)	8e-L]	>
8A-	.	.	.	.
.	.	.	8e-J	.
8A-	.	.	.	.
.	4BB- 4E-	4dd-	8d- 8e-L	.
8G	.	.	.	.
.	.	.	8d- 8e-J	.
[16GJk	.	.	.	.
=100	=100	=100	=100	=100
16GLK]	4AA-	4cc	8c 8e-L	.
8A-	.	.	.	.
.	.	.	8c 8enJ	.
[16A-Jk	.	.	.	.
(16A-LL]	4D-	16b-LL	8.fL	.
16An	.	16cc	.	.
16B-	.	16.dd-	.	.
[16d-JJ)	.	.	16fJk	.
.	.	32b-JJk)	.	.
*	*	*v	*v	*
=101	=101	=101	=101
*	*	*^	*
*	*	*	*^	*
8d-L]	&(4E-&)	16a-LK	8a-L	4.e-	.
.	.	8ee-	.	.	<
8c	.	.	8an	.	.
.	.	8ee-	.	.	.
8d-	4E-	.	8b-	.	.
.	.	8ee-	.	.	.
*	*	*	*v	*v	*
*	*	*	*^	*
8B- 8d-J	.	.	8gJ	8e-	.
*	*	*	*v	*v	*
.	.	16ee-Jk	.	.
*v	*v	*	*	*
=102	=102	=102	=102
8AA- (8A-L	8a-	16c 16e-LK	pp
.	.	8e-	.
8C	8r	.	.
.	.	8e-	.
8E-	4r	.	.
.	.	8e-	.
8A-J	.	.	.
.	.	[16e-Jk	.
=103	=103	=103	=103
8GL	4b- 4dd-	16e-LK]	.
.	.	8e-	.
8F	.	.	.
.	.	8e-	.
8E-	4b- 4dd-	.	.
.	.	8e-	.
8GJ	.	.	.
.	.	[16e-Jk	.
=104	=104	=104	=104
8A-L	8a- 8cc	16e-LK]	.
.	.	8e-	.
8E-	8r	.	.
.	.	8e-	.
8C	4r	.	.
.	.	8e-	.
8AA-J	.	.	.
.	.	[16e-Jk	.
=105	=105	=105	=105
8GGL	4d- 4b-	16e-LK]	.
.	.	8e-	.
8FF	.	.	.
.	.	8e-	.
8EE-	4d- 4b-	.	.
.	.	8e-	.
8GGJ)	.	.	.
.	.	16e-Jk	.
*	*v	*v	*
=106	=106	=106
*^	*	*
4.r	(8AA-L	16c 16a-	.
.	.	8E- 8e-L	.
.	8EE-	.	.
.	.	8E- 8e-	.
.	8CC	.	.
.	.	8E- 8e-	.
8A- 8c	8AAA- 8AA-J	.	.
.	.	[16E- [16e-Jk	.
=107	=107	=107	=107
4B- 4d-	8GGG 8GGL	16E-] 16e-LK]	.
.	.	8E- 8e-	.
.	8FFF 8FF	.	.
.	.	8E- 8e-	.
4B- 4d-	8GGG 8GG	.	.
.	.	8E- 8e-	.
.	8EEE-) 8EE-J	.	.
.	.	[16E- [16e-Jk	.
=108	=108	=108	=108
8r	(8AAA-L	16E-] 16A- 16c 16e-LK]	.
.	.	8E- 8A- 8c 8e-	.
4.AA-	8AA-	.	.
.	.	8E- 8A- 8c 8e-	.
.	8EE-	.	.
.	.	8E- 8A- 8c 8e-	.
.	8CCJ)	.	.
.	.	[16E- [16A- [16c [16e-Jk	.
=109	=109	=109	=109
&(8AA-&)	8AAA-	16E-] 16A-] 16c] 16e-LK]	.
.	.	8E- 8A- 8c	.
(4.AA-	8AA-L	.	.
.	.	8E- 8A- 8c	.
.	8EE-	.	.
.	.	8E- 8A- 8c	.
.	8CCJ)	.	.
.	.	[16E- [16A- [16cJk	.
=110	=110	=110	=110
8AA-	8AAA-	16E-] 16A-] 16cLK]	.
.	.	8C 8E- 8A-	.
(4.AA-	8AA-L	.	.
.	.	8C 8E- 8A-	.
.	8EE-	.	.
.	.	8C 8E- 8A-	.
.	8CCJ)	.	.
.	.	[16C [16E- [16A-Jk	.
*v	*v	*	*
=111	=111	=111
8AAA-	8C] 8E-] 8A-]	.
8r	8r	.
8AAA-	8C 8E-	pp
8r	8r	.
*	*clefF4	*clefF4
=112	=112	=112
2AAA-; 2AA-;	2C;	.
==	==	==
*-	*-	*-
!!!LOR: Durand 1915, plates 9327/9328, Paul Dukas, ed.
!!!URL-vhv: https://verovio.humdrum.org/?file=beethoven/sonatas/sonata05-2.krn
!!!URL-pdf: https://github.com/craigsapp/beethoven-piano-sonatas/blob/master/reference-edition/sonata05-2.pdf
!!!ENC: Craig Stuart Sapp
!!!END: 2008/10/31/
